X: 1
T: Only For Barney
R: jig
M: 6/8
L: 1/8
K: Gmaj
BA|:GBd g3|afd cBA|GFG B (3Bcd|ecA fef|
g (3Bcd gbg|afd c3|dBG (3cBA F|GBA G3:|
g3 GBd|gbg f3|g (3efg afd|(3cBA F Dba|
gdB GBd|ede agf|g (3dcB AGA|BGF GBd:|
edB g (3dcB|edB GAB|A (3cBA Aag|fed cBA|
B3 gdB|GBB FAA|BdB A (3cBA|BGF (3GGG z:|

